static/assets/template/assets/img/icons/essential/detailed/Return_Policy.svg

<svg height="150" viewBox="0 0 136 150" width="136" xmlns="http://www.w3.org/2000/svg"><g fill="none" fill-rule="evenodd" transform="translate(2 1)"><path d="m124.3 82.3c4.5 0 7.8 4 7.2 8.4-1.4 9.4-4.8 18.6-10.4 27v.1c-.8 1.2-1.8 2.6-2.7 3.8 0 .5-5.8 6.6-6.2 6.9-44.3 39.4-104.3 11.4-111.3-37.9 0-.1 0-.1 0-.1-5.3-35.5 21.1-71.4 58.9-74.9l-2.6-2.6c-2.7-2.7-2.7-7.2 0-9.9 2.7-2.7 7.2-2.7 9.9 0l15.6 15.6c2.7 2.7 2.7 7.2 0 9.9-16.6 16.6-16.7 17.6-20.5 17.6-6.2 0-9.4-7.5-5-12l4.1-4.1c-11.8 1.2-20.6 6-21.8 7.2-13 7.5-23.6 23.3-24.6 40.2-.1.1-.1 3.4-.1 3.5-.4 39.6 43.1 63 73.2 46.7 6.3-2.9 13.5-8.8 13.9-9.6.2-.1 2.5-2.6 2.7-2.8 6.8-7.4 11.1-17.6 12.5-26.8.5-3.5 3.6-6.2 7.2-6.2z" fill="#bad8ff" fill-rule="nonzero"/><circle cx="123.4" cy="65.7" fill="#bad8ff" fill-rule="nonzero" r="7.1"/><circle cx="113.3" cy="45.2" fill="#bad8ff" fill-rule="nonzero" r="7.1"/><circle cx="96.9" cy="30.9" fill="#bad8ff" fill-rule="nonzero" r="7.1"/><g stroke-linecap="round" stroke-linejoin="round" stroke-width="3"><path d="m109.6 108.8c4-6.3 6.5-13.5 7.5-20.2.5-3.6 3.6-6.2 7.2-6.2 4.5 0 7.8 4 7.2 8.4-1.4 9.4-4.8 18.6-10.4 27v.1c-.8 1.2-1.8 2.6-2.7 3.8 0 .5-5.8 6.6-6.2 6.9-44.3 39.4-104.3 11.4-111.3-37.9 0-.1 0-.1 0-.1-3.1-21.1 4.9-42.4 20-56.9"/><path d="m40 125.4c14.6 8.8 33 10.5 48.1 2.4 2.8-1.3 5.8-3.2 8.3-4.9"/><path d="m59.7 15.5-2.6-2.6c-2.7-2.7-2.7-7.2 0-9.9s7.2-2.7 9.9 0l15.6 15.6c2.7 2.7 2.7 7.2 0 9.9-16.6 16.6-16.7 17.6-20.5 17.6-6.2 0-9.4-7.5-5-12l4.1-4.1c-11.8 1.2-20.6 6-21.8 7.2-13 7.5-23.6 23.3-24.6 40.2-.1.1-.1 3.4-.1 3.5-.1 12.9 4.4 24.1 11.6 32.7"/><path d="m43.5 19.2c3.3-1.2 6.8-2.2 10.4-2.9"/><path d="m31.7 25c1.2-.7 2.4-1.4 3.6-2.1"/><path d="m116.8 68.2c-.3-.8-.4-1.6-.4-2.5 0-3.9 3.2-7.1 7.1-7.1s7.1 3.2 7.1 7.1-3.2 7.1-7.1 7.1c-.3 0-.6 0-.9-.1"/><path d="m116.7 39c2.2 1.2 3.7 3.6 3.7 6.3 0 3.9-3.2 7.1-7.1 7.1s-7.1-3.2-7.1-7.1c0-2 .9-3.9 2.2-5.2"/><circle cx="96.9" cy="30.9" r="7.1"/></g><g fill-rule="nonzero" transform="translate(51 52)"><path d="m15.2 61.1c-2 0-3.6-1.6-3.6-3.6v-3.3c-2.7-.2-5.4-.9-7.6-2-1.8-.9-2.7-2.9-2-4.9.6-1.6 2-2.6 3.7-2.6.6 0 1.1.1 1.6.4 1.5.7 3.9 1.5 6.9 1.5 3.9 0 6.6-2.1 6.6-5.2 0-2.8-2-4.8-6.8-6.7-6.3-2.5-12.2-5.8-12.2-13.2 0-6 4-10.7 10.3-12.2v-3.5c0-2 1.6-3.6 3.6-3.6s3.6 1.6 3.6 3.6v3.1c2.1.2 4.1.7 5.9 1.4 1.9.8 2.9 3 2.1 5-.6 1.5-2 2.5-3.6 2.5-.5 0-1-.1-1.5-.3-1.8-.7-3.7-1.1-5.8-1.1-4.2 0-5.7 2.2-5.7 4.4 0 2.5 1.7 4 7.5 6.4 8 3.3 11.5 7.4 11.5 13.8 0 6.2-4.3 11.2-10.8 12.8v3.7c0 1.9-1.6 3.6-3.7 3.6z"/><path d="m15.7 3.7c1.2 0 2.1.9 2.1 2.1v4.5c2.8.1 5 .6 6.8 1.4 1.2.5 1.7 1.9 1.3 3.1-.4 1-1.3 1.5-2.2 1.5-.3 0-.6-.1-.9-.2-1.5-.6-3.6-1.2-6.3-1.2-5.2 0-7.2 3.1-7.2 5.9 0 3.5 2.5 5.3 8.4 7.8 7 2.9 10.6 6.4 10.6 12.5 0 5.4-3.7 10.4-10.8 11.6v5c0 1.2-.9 2.1-2.1 2.1h-.1c-1.2 0-2.1-.9-2.1-2.1v-4.8c-3-.1-6.1-.8-8.5-1.9-1.1-.5-1.7-1.8-1.3-3 .4-1 1.3-1.6 2.2-1.6.3 0 .7.1 1 .2 2.2 1 4.8 1.7 7.5 1.7 4.8 0 8.1-2.8 8.1-6.7 0-3.7-2.7-6.1-7.7-8.1-6.9-2.7-11.2-5.9-11.2-11.8 0-5.7 4-9.9 10.3-11v-4.8c0-1.3 1-2.2 2.1-2.2zm0-3c-2.8 0-5.1 2.3-5.1 5.1v2.4c-6.2 2-10.3 7.1-10.3 13.3 0 8.3 6.6 12 13.1 14.6 5.3 2.2 5.8 3.9 5.8 5.3 0 2.7-2.7 3.7-5.1 3.7-2.7 0-4.9-.8-6.3-1.4-.7-.3-1.5-.5-2.2-.5-2.3 0-4.3 1.4-5.1 3.6-1 2.7.2 5.6 2.8 6.8 2 .9 4.4 1.6 6.8 1.9v2c0 2.8 2.3 5.1 5.1 5.1h.1c2.8 0 5.1-2.3 5.1-5.1v-2.6c6.5-2 10.8-7.4 10.8-13.9 0-9-6.6-12.9-12.4-15.2-6.1-2.5-6.6-3.6-6.6-5 0-.9.4-2.9 4.2-2.9 1.9 0 3.6.3 5.2 1 .7.3 1.4.4 2.1.4 2.3 0 4.2-1.4 5-3.5 1-2.7-.3-5.8-3-6.9-1.5-.6-3.2-1.1-4.9-1.3v-1.8c0-2.8-2.3-5.1-5.1-5.1z"/></g></g></svg>

<?xml version="1.0" encoding="UTF-8"?>
<svg width="136px" height="150px" viewBox="0 0 136 150" version="1.1" xmlns="http://www.w3.org/2000/svg" xmlns:xlink="http://www.w3.org/1999/xlink">
    <!-- Generator: Sketch 51.2 (57519) - http://www.bohemiancoding.com/sketch -->
    <title>Return_Policy</title>
    <desc>Created with Sketch.</desc>
    <defs></defs>
    <g id="Page-1" stroke="none" stroke-width="1" fill="none" fill-rule="evenodd">
        <g id="Return_Policy" transform="translate(2.000000, 1.000000)">
            <path d="M124.3,82.3 C128.8,82.3 132.1,86.3 131.5,90.7 C130.1,100.1 126.7,109.3 121.1,117.7 C121.1,117.7 121.1,117.7 121.1,117.8 C120.3,119 119.3,120.4 118.4,121.6 C118.4,122.1 112.6,128.2 112.2,128.5 C67.9,167.9 7.9,139.9 0.9,90.6 C0.9,90.5 0.9,90.5 0.9,90.5 C-4.4,55 22,19.1 59.8,15.6 L57.2,13 C54.5,10.3 54.5,5.8 57.2,3.1 C59.9,0.4 64.4,0.4 67.1,3.1 L82.7,18.7 C85.4,21.4 85.4,25.9 82.7,28.6 C66.1,45.2 66,46.2 62.2,46.2 C56,46.2 52.8,38.7 57.2,34.2 L61.3,30.1 C49.5,31.3 40.7,36.1 39.5,37.3 C26.5,44.8 15.9,60.6 14.9,77.5 C14.8,77.6 14.8,80.9 14.8,81 C14.4,120.6 57.9,144 88,127.7 C94.3,124.8 101.5,118.9 101.9,118.1 C102.1,118 104.4,115.5 104.6,115.3 C111.4,107.9 115.7,97.7 117.1,88.5 C117.6,85 120.7,82.3 124.3,82.3 Z" id="Shape" fill="#BAD8FF" fill-rule="nonzero"></path>
            <circle id="Oval" fill="#BAD8FF" fill-rule="nonzero" cx="123.4" cy="65.7" r="7.1"></circle>
            <circle id="Oval" fill="#BAD8FF" fill-rule="nonzero" cx="113.3" cy="45.2" r="7.1"></circle>
            <circle id="Oval" fill="#BAD8FF" fill-rule="nonzero" cx="96.9" cy="30.9" r="7.1"></circle>
            <path d="M109.6,108.8 C113.6,102.5 116.1,95.3 117.1,88.6 C117.6,85 120.7,82.4 124.3,82.4 C128.8,82.4 132.1,86.4 131.5,90.8 C130.1,100.2 126.7,109.4 121.1,117.8 C121.1,117.8 121.1,117.8 121.1,117.9 C120.3,119.1 119.3,120.5 118.4,121.7 C118.4,122.2 112.6,128.3 112.2,128.6 C67.9,168 7.9,140 0.9,90.7 C0.9,90.6 0.9,90.6 0.9,90.6 C-2.2,69.5 5.8,48.2 20.9,33.7" id="Shape" class="stroke-primary" stroke-width="3" stroke-linecap="round" stroke-linejoin="round"></path>
            <path d="M40,125.4 C54.6,134.2 73,135.9 88.1,127.8 C90.9,126.5 93.9,124.6 96.4,122.9" id="Shape" class="stroke-primary" stroke-width="3" stroke-linecap="round" stroke-linejoin="round"></path>
            <path d="M59.7,15.5 L57.1,12.9 C54.4,10.2 54.4,5.7 57.1,3 C59.8,0.3 64.3,0.3 67,3 L82.6,18.6 C85.3,21.3 85.3,25.8 82.6,28.5 C66,45.1 65.9,46.1 62.1,46.1 C55.9,46.1 52.7,38.6 57.1,34.1 L61.2,30 C49.4,31.2 40.6,36 39.4,37.2 C26.4,44.7 15.8,60.5 14.8,77.4 C14.7,77.5 14.7,80.8 14.7,80.9 C14.6,93.8 19.1,105 26.3,113.6" id="Shape" class="stroke-primary" stroke-width="3" stroke-linecap="round" stroke-linejoin="round"></path>
            <path d="M43.5,19.2 C46.8,18 50.3,17 53.9,16.3" id="Shape" class="stroke-primary" stroke-width="3" stroke-linecap="round" stroke-linejoin="round"></path>
            <path d="M31.7,25 C32.9,24.3 34.1,23.6 35.3,22.9" id="Shape" class="stroke-primary" stroke-width="3" stroke-linecap="round" stroke-linejoin="round"></path>
            <path d="M116.8,68.2 C116.5,67.4 116.4,66.6 116.4,65.7 C116.4,61.8 119.6,58.6 123.5,58.6 C127.4,58.6 130.6,61.8 130.6,65.7 C130.6,69.6 127.4,72.8 123.5,72.8 C123.2,72.8 122.9,72.8 122.6,72.7" id="Shape" class="stroke-primary" stroke-width="3" stroke-linecap="round" stroke-linejoin="round"></path>
            <path d="M116.7,39 C118.9,40.2 120.4,42.6 120.4,45.3 C120.4,49.2 117.2,52.4 113.3,52.4 C109.4,52.4 106.2,49.2 106.2,45.3 C106.2,43.3 107.1,41.4 108.4,40.1" id="Shape" class="stroke-primary" stroke-width="3" stroke-linecap="round" stroke-linejoin="round"></path>
            <circle id="Oval" class="stroke-primary" stroke-width="3" stroke-linecap="round" stroke-linejoin="round" cx="96.9" cy="30.9" r="7.1"></circle>
            <g id="Group" transform="translate(51.000000, 52.000000)" fill-rule="nonzero">
                <path d="M15.2,61.1 C13.2,61.1 11.6,59.5 11.6,57.5 L11.6,54.2 C8.9,54 6.2,53.3 4,52.2 C2.2,51.3 1.3,49.3 2,47.3 C2.6,45.7 4,44.7 5.7,44.7 C6.3,44.7 6.8,44.8 7.3,45.1 C8.8,45.8 11.2,46.6 14.2,46.6 C18.1,46.6 20.8,44.5 20.8,41.4 C20.8,38.6 18.8,36.6 14,34.7 C7.7,32.2 1.8,28.9 1.8,21.5 C1.8,15.5 5.8,10.8 12.1,9.3 L12.1,5.8 C12.1,3.8 13.7,2.2 15.7,2.2 C17.7,2.2 19.3,3.8 19.3,5.8 L19.3,8.9 C21.4,9.1 23.4,9.6 25.2,10.3 C27.1,11.1 28.1,13.3 27.3,15.3 C26.7,16.8 25.3,17.8 23.7,17.8 C23.2,17.8 22.7,17.7 22.2,17.5 C20.4,16.8 18.5,16.4 16.4,16.4 C12.2,16.4 10.7,18.6 10.7,20.8 C10.7,23.3 12.4,24.8 18.2,27.2 C26.2,30.5 29.7,34.6 29.7,41 C29.7,47.2 25.4,52.2 18.9,53.8 L18.9,57.5 C18.9,59.4 17.3,61.1 15.2,61.1 Z" id="Shape" class="fill-primary-500"></path>
                <path d="M15.7,3.7 C16.9,3.7 17.8,4.6 17.8,5.8 L17.8,10.3 C20.6,10.4 22.8,10.9 24.6,11.7 C25.8,12.2 26.3,13.6 25.9,14.8 C25.5,15.8 24.6,16.3 23.7,16.3 C23.4,16.3 23.1,16.2 22.8,16.1 C21.3,15.5 19.2,14.9 16.5,14.9 C11.3,14.9 9.3,18 9.3,20.8 C9.3,24.3 11.8,26.1 17.7,28.6 C24.7,31.5 28.3,35 28.3,41.1 C28.3,46.5 24.6,51.5 17.5,52.7 L17.5,57.7 C17.5,58.9 16.6,59.8 15.4,59.8 L15.3,59.8 C14.1,59.8 13.2,58.9 13.2,57.7 L13.2,52.9 C10.2,52.8 7.1,52.1 4.7,51 C3.6,50.5 3,49.2 3.4,48 C3.8,47 4.7,46.4 5.6,46.4 C5.9,46.4 6.3,46.5 6.6,46.6 C8.8,47.6 11.4,48.3 14.1,48.3 C18.9,48.3 22.2,45.5 22.2,41.6 C22.2,37.9 19.5,35.5 14.5,33.5 C7.6,30.8 3.3,27.6 3.3,21.7 C3.3,16 7.3,11.8 13.6,10.7 L13.6,5.9 C13.6,4.6 14.6,3.7 15.7,3.7 Z M15.7,0.7 C12.9,0.7 10.6,3 10.6,5.8 L10.6,8.2 C4.4,10.2 0.3,15.3 0.3,21.5 C0.3,29.8 6.9,33.5 13.4,36.1 C18.7,38.3 19.2,40 19.2,41.4 C19.2,44.1 16.5,45.1 14.1,45.1 C11.4,45.1 9.2,44.3 7.8,43.7 C7.1,43.4 6.3,43.2 5.6,43.2 C3.3,43.2 1.3,44.6 0.5,46.8 C-0.5,49.5 0.7,52.4 3.3,53.6 C5.3,54.5 7.7,55.2 10.1,55.5 L10.1,57.5 C10.1,60.3 12.4,62.6 15.2,62.6 L15.3,62.6 C18.1,62.6 20.4,60.3 20.4,57.5 L20.4,54.9 C26.9,52.9 31.2,47.5 31.2,41 C31.2,32 24.6,28.1 18.8,25.8 C12.7,23.3 12.2,22.2 12.2,20.8 C12.2,19.9 12.6,17.9 16.4,17.9 C18.3,17.9 20,18.2 21.6,18.9 C22.3,19.2 23,19.3 23.7,19.3 C26,19.3 27.9,17.9 28.7,15.8 C29.7,13.1 28.4,10 25.7,8.9 C24.2,8.3 22.5,7.8 20.8,7.6 L20.8,5.8 C20.8,3 18.5,0.7 15.7,0.7 Z" id="Shape" class="fill-primary"></path>
            </g>
        </g>
    </g>
</svg>
